X:331
T:Not For Joe
A:Dilwyn
S:http://lesters-tune-a-day.blogspot.co.uk/   #113
N:This is one of a number of Welsh Border tunes known as Not for Joe.
N:This one is used for the dance from the village of Dilwyn.
M:4/4
L:1/8
K:G
|: D2 G2 D2 G2 | F2 E2 F2 E2 \
|1 D2 G2 D2 G2 | F2 G2 A4 \
:|2 D4 B3 A | G2 F2 G4 :|
|: B3 A G2 B2 | c4 A4 \
|1 B3 A G2 B2 | A2 F2 D4 \
:|2 D4 B3 A | G2 F2 G4 :|
